svg/color/bidr.svg

<?xml version="1.0" encoding="UTF-8" ?>
<!DOCTYPE svg PUBLIC "-//W3C//DTD SVG 1.1//EN" "http://www.w3.org/Graphics/SVG/1.1/DTD/svg11.dtd">
<svg width="250pt" height="250pt" viewBox="0 0 250 250" version="1.1" xmlns="http://www.w3.org/2000/svg">
<g id="#ffffffff">
<path fill="#ffffff" opacity="1.00" d=" M 0.00 0.00 L 250.00 0.00 L 250.00 250.00 L 0.00 250.00 L 0.00 0.00 M 64.21 64.20 C 64.20 104.73 64.19 145.27 64.21 185.80 C 73.37 185.79 82.54 185.80 91.70 185.80 C 91.72 154.44 91.69 123.07 91.71 91.71 C 113.90 91.70 136.10 91.70 158.29 91.71 C 158.29 98.21 158.31 104.70 158.28 111.19 C 142.59 111.21 126.90 111.20 111.21 111.20 C 111.20 136.07 111.20 160.93 111.21 185.80 C 120.40 185.80 129.60 185.80 138.79 185.80 C 138.85 170.45 138.72 155.09 138.85 139.73 C 139.05 139.51 139.45 139.07 139.65 138.85 C 155.03 138.72 170.41 138.84 185.79 138.80 C 185.80 113.93 185.80 89.07 185.79 64.20 C 145.26 64.20 104.74 64.20 64.21 64.20 M 158.30 158.30 C 158.29 167.46 158.29 176.63 158.30 185.80 C 167.46 185.80 176.63 185.80 185.79 185.80 C 185.80 176.63 185.80 167.46 185.79 158.30 C 176.63 158.29 167.46 158.29 158.30 158.30 Z" />
</g>
<g id="#f0b90bff">
<path fill="#f0b90b" opacity="1.00" d=" M 64.21 64.20 C 104.74 64.20 145.26 64.20 185.79 64.20 C 185.80 89.07 185.80 113.93 185.79 138.80 C 170.41 138.84 155.03 138.72 139.65 138.85 C 139.45 139.07 139.05 139.51 138.85 139.73 C 138.72 155.09 138.85 170.45 138.79 185.80 C 129.60 185.80 120.40 185.80 111.21 185.80 C 111.20 160.93 111.20 136.07 111.21 111.20 C 126.90 111.20 142.59 111.21 158.28 111.19 C 158.31 104.70 158.29 98.21 158.29 91.71 C 136.10 91.70 113.90 91.70 91.71 91.71 C 91.69 123.07 91.72 154.44 91.70 185.80 C 82.54 185.80 73.37 185.79 64.21 185.80 C 64.19 145.27 64.20 104.73 64.21 64.20 Z" />
<path fill="#f0b90b" opacity="1.00" d=" M 158.30 158.30 C 167.46 158.29 176.63 158.29 185.79 158.30 C 185.80 167.46 185.80 176.63 185.79 185.80 C 176.63 185.80 167.46 185.80 158.30 185.80 C 158.29 176.63 158.29 167.46 158.30 158.30 Z" />
</g>
</svg>

<?xml version="1.0" encoding="utf-8"?>
<!-- Generator: Adobe Illustrator 26.0.3, SVG Export Plug-In . SVG Version: 6.00 Build 0)  -->
<svg version="1.1" id="Layer_1" xmlns="http://www.w3.org/2000/svg" xmlns:xlink="http://www.w3.org/1999/xlink" x="0px" y="0px"
	 viewBox="0 0 250 250" style="enable-background:new 0 0 250 250;" xml:space="preserve">
<style type="text/css">
	.st0{fill:#FFFFFF;}
	.st1{fill:#F0B90B;}
</style>
<circle class="st0" cx="125" cy="125.5" r="125"/>
<g id="_x23_f0b90bff">
	<path class="st1" d="M64.2,64.2c40.5,0,81,0,121.6,0c0,24.9,0,49.7,0,74.6c-15.4,0-30.8-0.1-46.1,0.1c-0.2,0.2-0.6,0.7-0.8,0.9
		c-0.1,15.4,0,30.7-0.1,46.1c-9.2,0-18.4,0-27.6,0c0-24.9,0-49.7,0-74.6c15.7,0,31.4,0,47.1,0c0-6.5,0-13,0-19.5
		c-22.2,0-44.4,0-66.6,0c0,31.4,0,62.7,0,94.1c-9.2,0-18.3,0-27.5,0C64.2,145.3,64.2,104.7,64.2,64.2z"/>
	<path class="st1" d="M158.3,158.3c9.2,0,18.3,0,27.5,0c0,9.2,0,18.3,0,27.5c-9.2,0-18.3,0-27.5,0
		C158.3,176.6,158.3,167.5,158.3,158.3z"/>
</g>
</svg>
